X: 100045
M: 2/4
L: 1/16
K: D
ud2 |\
(dc)df a4 | (fd)cd A4 | ABcd efga | g4 f4 |\
gecA GECA, | A,B,CD EFGA | G2c2 E2c2 | d6 ||
ue2 |\
defg abc'd' | d'c'ba gfed | (cd)ed c2e2 | a6 z2 |\
(vag)fe ^d2f2 | g6 z2 | (ved)cB A2c2 | d6 "^D.C."||
uF2 |\
d'2c'2b2a2 | {a}g2f2e2d2 | c2f2 fedc | B6 "_D.C."|]


